svg/menu_close.svg

<svg xmlns="http://www.w3.org/2000/svg" viewBox="0 0 24 24"><path d="M3 6h10v2H3zm0 10h10v2H3zm0-5h12v2H3zm13-4-1.42 1.39L18.14 12l-3.56 3.61L16 17l5-5z"/></svg>

<svg xmlns="http://www.w3.org/2000/svg" id="mdi-menu-close" viewBox="0 0 24 24"><path d="M3 6H13V8H3V6M3 16H13V18H3V16M3 11H15V13H3V11M16 7L14.58 8.39L18.14 12L14.58 15.61L16 17L21 12L16 7Z" /></svg>
